X:1
T:III. Ronde
T:Maurice Ravel
T:III. Ronde
T:Trois chansons
C:Maurice Ravel
%%score [ 1 2 3 4 ]
L:1/8
Q:1/4=120
M:2/4
K:A
V:1 treble nm="Sopranos" snm="S."
V:2 treble nm="Contraltos" snm="C."
V:3 treble-8 transpose=-12 nm="Tenors" snm="T."
V:4 bass nm="Basses" snm="B."
V:1
"^LES VIEILLES"!p!"^Allegro" (!>!.c.^d .e.f | .^d.e .c.B) | (!>!.c.^d .e.f | %3
w: N'al- lez pas au|bois d'Or- mon- de,|jeu- nes fil- les,|
[M:3/4] .^d.e .c.B .c2) |[M:2/4]!mf! (!>!.c.^d .e.f | .^d.e .c.B) | (!>!.c.^d .e.f | %7
w: n'al- lez pas au bois:|Il y a plein|de sa- ty- res,|de cen- tau- res,|
[M:3/4] .^d.e .c.B .G2) |[M:2/4]!p! (3(FFE .F.G | (AG) .F.E) |[M:3/4] (3(FFE .F.B !>!.F2) | %11
w: de ma- lins sor- ciers,|des far- fa- dets et|des in- cu- bes,|des og- res, des lu- tins,|
[M:2/4] (3(FFE (3F!<(!F!<)!G |!>(! A!>)!G FE) |[M:3/4] (3(FFE (3FFB !>!.F2) | %14
w: des fau- nes, des fol- lets,|des la- mi- es,|dia- bles, dia- blots, dia- blo- tins,|
[M:2/4]!p! (3(BBA!<(! .B!<)!.c |!>(! (d!>)!c) (3BBA) | (3(BB!<(!A .B!<)!.c |!>(! (3dd!>)!c (3BBA) | %18
w: des chè- vre- pieds, des|gno- mes, des dé- mons,|des loups- ga- rous, des|el- fes, des myr- mi- dons,|
"^cresc." (3(BAB (3!>!cAB | (3BAB (3!>!cAB | (3BAB (3!>!cAB | (3BAB (3!>!cAB | (3BcB (3cBc | %23
w: des en- chan- teurs et des|ma- ges, des stry- ges, des|syl- phes, des moi- nes bour-|rus, des cy- clo- pes, des|djinns, go- be- lins, kor- ri-|
 (3BcB (3cBc) |!f! e4- | e4- |!>(! e4-!>)! | e4 ||!p! !>!.G z z2 | z2 G/G/F/F/ | !>!.G z z2 | %31
w: gans, né- cro- mans, ko- bolds...|Ah!|_|||la|N'al- lez pas au|bois,|
[M:3/4] z2 G/G/F/F/ .G z |[M:2/4]!mf! !>!.G z z2 | z2 G/G/F/F/ | !>!.G z z2 | %35
w: n'al- lez pas au bois,|La|N'al- lez pas au|bois,|
[M:3/4] z2 G/G/F/F/ ^D z |[M:2/4]!p! (F3 ^E) | .C z .^D z |[M:3/4] (F3!<(! C)!<)! .^D z | %39
w: N'al- lez pas au bois,|gar- çons,|n'al- lez|pas au bois,|
[M:2/4]!mf! (^A3 G) | .^D z .^E z |[M:3/4] (^A3!<(! ^D)!<)! .G z |[M:2/4]!p! (=A3 G) | (!>!E3 F) | %44
w: gar- çons,|n'al- lez|pas au bois.|Il y|a plein|
 (c3 B) | (!>!F3 G) | (!>!d2"^cresc." .A).B | !>!d2 .A.B | (!>!d2- (3deB | !>!d2- (3deB | %50
w: de dé-|mon- nes,|d'ha- ma- dry-|a- des, mé-|na- * des, fol-|let- * tes, gno-|
 (3!>!ded (3ede | (3!>!ded (3ede) |!f! (f4- | f4 |!>(! A4- | %55
w: mi- des, suc- cu- bes, gor-|go- nes, go- be- li- nes...|Ah!|_|Ah!|
 A2!>)!"^LES FILLES""^Moderato"[Q:1/4=100] B2) ||!p! (.c.^d .e.f | .^d.e .c.B) | !>!.G z z2 | %59
w: _ _|N'i- rons plus au|bois d'Or- mon- de,|La|
[M:3/4] z2 .G.F .G z |[M:2/4]!mf! (!>!.c.^d .e.f | .^d.e .c.B) | !>!.G z z2 | %63
w: la la la|Il n'y a plus|de sa- ty- res,|la|
[M:3/4] z2 .G.F .^D z |[M:2/4]!p! (3(FFE .F.G | (AG) .F.E |[M:3/4] (3FFE .FB !>!.F) z | %67
w: la la la|Plus de far- fa- dets,|plus d'in- cu- bes,|Plus d'o- gres, de lu- tins,|
[M:2/4] (3(FFE (3FFG | AG FE) |[M:3/4] (3(FFE (3FFB !>!.F) z | %70
w: de fau- nes, de fol- lets,|de la- mi- es,|dia- bles, dia- blots, dia- blo- tins,|
[M:2/4]"^accel."!p! (3(BBA!<(! .B!<)!.c |!>(! (d!>)!c) (3BBA) | (3(BBA!<(! .B!<)!.c | %73
w: de chè- vre- pieds, de|gno- mes, de dé- mons,|De loup- ga- rous, ni|
!>(! (3BB!>)!A (3BBA) | (3(BAB (3!>!cBA | (3!>!cAB (3!>!cBA | (3!>!dcd (3!>!edc | %77
w: d'el- fes, de myr- mi- dons,|plus d'en- chan- teurs ni de|ma- ges, de sty- ges, de|syl- phes, de moi- nes bour-|
 (3!>!dcd (3!>!edc |"^Tempo I" (3!>!ded (3ede | (3ded (3ede | (3ded (3ede | (3ded (3ede) | %82
w: rus, de cy- clo- pes, de|djinns, de dia- blo- teaux, d'é-|frits, d'ae- gy- pans, de syl-|vains, go- be- lins, kor- ri-|gans, né- cro- mans, ko- bolds...|
!ff! (a4- | a4- | a4- | a4 | A4- | A2!mp! B2) | (!>!.c2 .B.c | .A.E!<(! .F!<)!.B) | (!>!.c2 .B.c | %91
w: Ah!|_|||Ah!|_ _|Les ma- la-|vi- sées vieil- les,|les ma- la-|
 .A.E!<(! .F!<)!.B |!f! .B.c .A.G | (A2 !wedge!a)) z |] %94
w: vi- sés vieux les|ont ef- fa- rou-|chés Ah!|
V:2
!p! !>!.G z z2 | z2 .G.F | !>!.G z z2 |[M:3/4] z2 .G.F .G z |[M:2/4]!mf! !>!.G z z2 | z2 .G.F | %6
w: La|la la|la|la la la|la|la la|
 !>!G z z2 |[M:3/4] z2 .G.F .E z |[M:2/4]!p! (3(DDC .D.E | (FE) .D.C) | %10
w: la|la la la|des far- fa- dets et|des in- cu- bes,|
[M:3/4] (3(DDC .D.E !>!.D2) |[M:2/4] (3(DDC (3D!<(!D!<)!E |!>(! F!>)!E DC) | %13
w: des og- res, des lu- tins,|des fau- nes, des fol- lets,|des la- mi- es,|
[M:3/4] (3(DDC (3DDE !>!.D2) |[M:2/4]!p! (3(FFE!<(! .F!<)!.G |!>(! (A!>)!G) (3F)FE | %16
w: dia- bles, dia- blots, dia- blo- tins,|des chè- vre- pieds, des|gno- mes, des dé- mons,|
 (3(FF!<(!E .F!<)!.G |!>(! (3AA!>)!G (3FFE) | (3(FEF (3!>!GEF | (3FEF (3!>!GEF | (3FEF (3!>!GEF | %21
w: des loups- ga- rous, des|el- fes, des myr- mi- dons,|des en- chan- teurs et des|ma- ges, des stry- ges, des|syl- phes, des moi- nes bour-|
 (3FEF (3!>!GEF | (3FAF (3AFA | (3FAF (3AFA) |!f! (.G.A G.c | .A.B (!>!G.F)) |!>(! (.E.F .=G.A | %27
w: rus, des cy- clo- pes, des|djinns, go- be- lins, kor- ri-|gans, né- cro- mans, ko- bolds...|N'al- lez pas au|bois d'Or- mon- de,|n'al- lez pas au|
 .F.=G !>!E!>)!.D) ||!p! !>!.E z z2 | z2 E/E/^D/D/ | !>!.E z z2 |[M:3/4] z2 E/E/^D/D/ .E z | %32
w: bois d'Or- mon- de,|la|N'al- lez pas au|bois,|n'al- lez pas au bois,|
[M:2/4]!mf! !>!.E z z2 | z2 E/E/^D/D/ | !>!.E z z2 |[M:3/4] z2 E/E/^D/D/ .^B, z | %36
w: La|N'al- lez pas au|bois,|N'al- lez pas au bois,|
[M:2/4]!p! =B,3- .B, | .B, z .B, z |[M:3/4] B,3-!<(! .B,!<)! .B, z |[M:2/4]!mf! (F3 ^E) | %40
w: gar- çons,|n'al- lez|pas au bois,|gar- çons,|
 .C z .^D z |[M:3/4] (F3!<(! B,)!<)! .F z |[M:2/4]!p! (=D3 .D) | (!>!D3 D) | (A3 G) | (!>!E3 E) | %46
w: n'al- lez|pas au bois.|Il y|a plein|de dé-|mon- nes,|
 (!>!A2 .D).G | (!>!A2 .D).G | (3(!>!AGA (3BAG | (3!>!AGA (3BAG | (3!>!AGA (3BAB | %51
w: d'ha- ma- dry-|a- des, mé-|na- des, thy- a- des, fol-|let- tes, lé- mu- res, gno-|mi- des, suc- cu- bes, gor-|
 (3!>!AGA (3BAB) |!f! (.A.B .=c.d | .B.c (!>!A.=G)) | F z!>(! (A2- | A2 B!>)!A) ||!p! (.G.B .c.^d | %57
w: go- nes, go- be- li- nes...|N'al- lez pas au|bois d'Or- mon- de,|La la|_ la _|N'i- rons plus au|
 .B.c .G.F) | !>!.E z z2 |[M:3/4] z2 .E.^D .E z |[M:2/4]!mf! (!>!.G.B .c.^d | .B.c .G.F) | %62
w: bois d'Or- mon- de,|La|la la la|Il n'y a plus|de sa- ty- res,|
 !>!.E z z2 |[M:3/4] z2 .E.C .B, z |[M:2/4]!p! (3(DDC .D.E | (FE) .D.C | %66
w: la|la la la|Plus de far- fa- dets,|plus d'in- cu- bes,|
[M:3/4] (3DDC .D.E !>!.D) z |[M:2/4] (3(DDC (3DDE | FE DC) |[M:3/4] (3(DDC (3DDE !>!.D) z | %70
w: Plus d'o- gres, de lu- tins,|de fau- nes, de fol- lets,|de la- mi- es,|dia- bles, dia- blots, dia- blo- tins,|
[M:2/4]!p! (3(=GGD!<(! .G!<)!.A |!>(! (B!>)!A) (3=GGD) | (3(=GGD!<(! G!<)!A | (3BBA (3=GG)D | %74
w: de chè- vre- pieds, de|gno- mes, de dé- mons,|De loup- ga- rous, ni|d'el- fes, de myr- mi- dons,|
 (3(=GDG (3!>!AGE | (3!>!=GDG (3!>!AGE | (3!>!=GAG (3!>!AGA | (3!>!=GAG (3!>!AGA | %78
w: plus d'en- chan- teurs ni de|ma- ges, de sty- ges, de|syl- phes, de moi- nes bour-|rus, de cy- clo- pes, de|
 (3!>!^GBG (3BGB | (3GBG (3BGB | (3=G_BG (3BGB | (3=G_BG (3BGB) |!ff! (.A.=B .=c.d | %83
w: djinns, de dia- blo- teaux, d'é-|frits, d'ae- gy- pans, de syl-|vains, go- be- lins, kor- ri-|gans, né- cro- mans, ko- bolds...|N'al- lez pas au|
 .B.=c (!>!.A.=G)) | (.F.=G .A.B |!>(! =GA !>!F-.F) | (A4 | A2)!>)!!mp! G2 | !>!.F z z2 | %89
w: bois d'Or- mon- de,|n'al- lez pas au|bois d'Or- mon- de,|Ah!|_ _|Les|
 z2!<(! .^D!<)!.G | .F z z2 | z2!<(! .^D!<)!.G |!f! .F.F .E.E | (E2 !wedge!c) z |] %94
w: vieil- les,|les|vieux les|ont ef- fa- rou-|chés Ah!|
V:3
!p! !>!.e z z2 | z2 .e.^d | !>!.e z z2 |[M:3/4] z2 .e.^d .e z |[M:2/4]!mf! !>!.e z z2 | z2 .e.^d | %6
w: La|la la|la|la la la|la|la la|
 !>!.e z z2 |[M:3/4] z2 .e.^d .c z |[M:2/4]!p! .A z z2 | z2 z .G |[M:3/4] .A z z .G !>!.c.B | %11
w: la|la la la|la|la|la la la la|
[M:2/4] .A z z2 | z2 z .G |[M:3/4] .A z z .G !>!.c.B |[M:2/4]!p! .d z z2 |!>(! .f!>)!.e .d.B | %16
w: la|la|la la la la|la|la la la la|
 d z z2 |!>(! .f!>)!.e .d.B | .d z !>!.f.e | d z !>!.f.e | d z (3!>!gge | d z (3!>!gge | %22
w: la|la la la la|la la la|la la la|la la la la|la Tra la la|
 (3(dfd (3fdf | (3dfd (3fdf) |!f! (.e.f .g.a | .f.g (!>!e.d)) |!>(! (.=g.d .e.f | %27
w: ta la ta la ta la|ta la ta la ta la|la la la la|la la la la|la la la la|
 .d.e!>)! !>!=c2) ||"^LES VIEUX"!p! (!>!.c.^d .e.f | .^d.e .c.B) | (!>!.c.^d .e.f | %31
w: la la la|N'al- lez pas au|bois d'Or- mon- de,|jeu- nes gar- çons,|
[M:3/4] .^d.e .c.B .c2) |[M:2/4]!mf! (!>!.c.^d .e.f | .^d.e .c.B) | (!>!.c.^d .e.f | %35
w: n'al- lez pas au bois:|Il y a plein|de fau- nes- ses,|de bac- chan- tes|
[M:3/4] .^d.e .c.B .G2) |[M:2/4]!p! G3- .G | .G z .G z |[M:3/4] (G3!<(! .G)!<)! .G z | %39
w: et de ma- les fées,|gar- çons,|n'al- lez|pas au bois,|
[M:2/4]!mf! B3- .B | .B z .B z |[M:3/4] (B3!<(! F)!<)! .B z |[M:2/4]!p! (B3 B) | (!>!B3 B) | %44
w: gar- çons,|n'al- lez|pas au bois.|Il y|a plein|
 (d3 d) | (!>!d3 d) | (3(!>!fef (3gfe | (3!>!fef (3gfe | (3!>!fef (3gfe | (3!>!fef (3gfe | %50
w: de dé-|mon- nes,|ha- ma- dry- a- des, dry-|a- des, na- ïa- des, mé-|na- des, thy- a- des, fol-|let- tes, lé- mu- res, gno-|
 (3!>!fef (3gfg | (3!>!fef (3gfg) |!f! (.f.f .f.f | .f.f (!>!f.e)) |!>(! (.^d.e .f.^g | %55
w: mi- des, suc- cu- bes, gor-|go- nes, go- be- li- nes...|N'al- lez pas au|bois d'Or- mon- de,|n'al- lez pas au|
 .e.f (!>!^d!>)!.=d)) ||"^LES GARCONS" c z z2 | z2!p! .e.^d | (!>!.c.^d .e.f | %59
w: bois d'Or- mon- de.|La|la la|Hé- las! plus ja-|
[M:3/4] .^d.e .c.B .c2) |[M:2/4]!mf! !>!.e z z2 | z2 .e.^d | (!>!.c.^d .e.f | %63
w: mais n'i- rons au bois.|La|la la|plus de nym- phes|
[M:3/4] .^d.e .c.B .G2) |[M:2/4]!p! .A z z2 | z2 z .G |[M:3/4] .A z FG cB |[M:2/4] .A z z2 | %68
w: ni de ma- les fées.|La|la|la Plus d'o- gres- ses,|non.|
 z2 z .G |[M:3/4] .A z!<(! (3(FF!<)!G!>(! c!>)!B) |[M:2/4]!p! =F z z2 | z2 (3=ff=g | .=f z .B z | %73
w: La|la De sa- ty- res- ses,|non.|Plus de fau-|nes's, non!|
 z2 (3=ff=g | .=f z .f.=g | .=f z .f.=g | !>!.=f z (3ff=g | !>!.=f z (3(ff=g | (3!>!e^fe (3fef | %79
w: De cen- tau-|res's, de naï-|ad's, de thy-|ad's, ni de mé-|nad's, d'ha- ma- dri-|a- des, dry- a- des, fol-|
 (3efe (3fef | (3e=ge (3geg | (3e=ge (3ge!ff!g) | (.a.a .a.a | .a.a (!>!.a.=g)) | (.d.=e .f.=g | %85
w: let- tes, lé- mu- res, gno-|mi- des, suc- cu- bes, gor-|go- nes, go- be- li- nes...|N'al- lez pas au|bois d'Or- mon- de,|n'al- lez pas au|
!>(! .e.f (f.e)) | (.^d.e .f.g | .e.f !>!^d-!>)!!mp!.d) | !>!.c z z2 | z2!<(! .B!<)!.^d | .c z z2 | %91
w: bois d'Or- mon- de,|n'al- lez pas au|bois d'Or- mon- de,|les|vieil- les,|les|
 z2!<(! .B!<)!.^d |!f! .d.d .d.d | (.c2 !wedge!a) z |] %94
w: vieux les|ont ef- fa- rou-|chés Ah!|
V:4
!p! !>!.A, z z2 | z2 .A,.E, | !>!.A, z z2 |[M:3/4] z2 .A,.E, .A, z |[M:2/4]!mf! !>!.F, z z2 | %5
w: La|la la|la|la la la|la|
 z2 .F,.G, | !>!.F, z z2 |[M:3/4] z2 .F,.G, .C, z |[M:2/4]!p! .B,, z z2 | z2 z .F, | %10
w: la la|la||||
[M:3/4] .B,, z z .F, !>!.F,2 |[M:2/4] .B,, z z2 | z2 z .F, |[M:3/4] .B,, z z2 !>!.F,2 | %14
w: |la|la|la la|
[M:2/4]!p! .E, z z2 |!>(! .D!>)!.B, .A,.F, | E, z z2 |!>(! .D!>)!.B, .A,.F, | .E, z !>!.D.B, | %19
w: la|la la la la|la|la la la la|la la la|
 E, z !>!.D.B, | E, z (3!>!DDB, | E, z (3!>!DDB, | E, z z2 | (3(B,DB, (3DB,D) |!f! (.E.E .E.E | %25
w: la la la|la la la la|la Tra la la|la|ta la ta la ta la|la la la la|
 EE (!>!E.D)) |!>(! (.=C.C .C.C | .=C.C !>!C!>)!._B,) ||!p! !>!.A, z z2 | z2 A,/A,/E,/E,/ | %30
w: la la la la|la la la la|la la la la|la|N'al- lez pas au|
 !>!.A,, z z2 |[M:3/4] z2 A,/A,/E,/E,/ .A,, z |[M:2/4]!mf! !>!.F, z z2 | z2 F,/F,/C,/C,/ | %34
w: bois,|n'al- lez pas au bois,|La|N'al- lez pas au|
 !>!.A,, z z2 |[M:3/4] z2 F,/F,/C,/C,/ .G,, z |[M:2/4]!p! (3(^D,D,C, .D,.^E, | F,^E, .^D,.C,) | %38
w: bois,|N'al- lez pas au bois,|Des sa- ty- res- ses,|des o- gres- ses,|
[M:3/4] (3(^D,D,C,!<(! .D,.G,!<)! .D,2) |[M:2/4]!mf! (3(^D,D,C, (3D,D,^E, | F,^E, .^D,.C,) | %41
w: et des ba- ba- ïa- gas,|des cen- tau- res- ses et|des dia- bles- ses,|
[M:3/4] (3(^D,D,C,!<(! (3D,D,G,!<)! !>!.D,2) |[M:2/4]!p! (3(F,F,E, .F,.G, | %43
w: gou- les sor- tant du sab- bat,|des far- fa- det- tes,|
!>(! .A,!>)!.G, (3F,F,E,) | (3(F,F,E,!<(! (3F,F,!<)!G, |!>(! (3A,!>)!A,G, .F,.E,) | %46
w: et des dé- mo- nes,|des lar- ves, des nym- phes,|des myr- mi- do- nes,|
 (3(!>!B,CB, (3A,B,C | (3!>!B,CB, (3A,B,C | (3!>!B,CB, (3A,B,C | (3!>!B,CB, (3A,B,C | %50
w: ha- ma- dry- a- des, dry-|a- des, na- ïa- des, mé-|na- des, thy- a- des, fol-|let- tes, lé- mu- res, gno-|
 (3!>!B,CB, (3CB,C | (3!>!B,CB, (3CB,C) |!f! (.D.D .D.D | .D.D (!>!D.=C)) |!>(! (.B,.^C .^D.E | %55
w: mi- des, suc- cu- bes, gor-|go- nes, go- be- li- nes...|N'al- lez pas au|bois d'Or- mon- de,|n'al- lez pas au|
 .C.^D (!>!B,!>)!.E,)) || A,, z z2 | z2!p! .A,.E, | (!>!.A,.B, .C.^D |[M:3/4] .B,.C .A,.E, .A,,2) | %60
w: bois d'Or- mon- de.|La|la la|Hé- las! plus ja-|mais n'i- rons au bois.|
[M:2/4]!mf! !>!.F, z z2 | z2 .F,.G, | (!>!.F,.B, .C.^D |[M:3/4] .B,.C .F,.F, .B,,2) | %64
w: La|la la|plus de nym- phes|ni de ma- les fées.|
[M:2/4]!p! .B,, z z2 | z2 z .F, |[M:3/4] .B,, z z2 !>!F,2 |[M:2/4] .B,, z z2 | z2 z .F, | %69
w: La|la|la Las!|non.|La|
[M:3/4] B,, z z2 !>!F,2 |[M:2/4]!p! B,, z z2 | z2 (3B,B,C | .B, z .B,, z | z2 (3B,B,C | %74
w: la Las!|non.|Plus de fau|nes's, non!|De cen- tau-|
 .B, z .B,.C | .B, z .B,.C | !>!.B, z (3B,B,C | !>!.B, z (3(B,B,C | (3!>!B,DB, (3DB,D | %79
w: res's, de naï-|ad's, de thy-|ad's, ni de mé-|nad's, d'ha- ma- dri-|a- des, dry- a- des, fol-|
 (3B,DB, (3DB,D | (3_B,=CB, (3CB,C | (3_B,=CB, (3CB,!ff!C) | (.=F.F .F.F | .=F.F (!>!.F._E)) | %84
w: let- tes, lé- mu- res, gno-|mi- des, suc- cu- bes, gor|go- nes, go- be- li- nes...|N'al- lez pas au|bois d'Or- mon- de,|
 (.D.D .D.D |!>(! .D.D (.D.=C)) | (.B,.^C .^D.E | .C.^D !>!B,!>)!!mp!.A, | !>!.E,) z z2 | %89
w: n'al- lez pas au|bois d'Or- mon- de,|n'al- lez pas au|bois d'Or- mon- de,|les|
 z2!<(! .A,!<)!.A, | .E, z z2 | z2!<(! .A,!<)!.A, |!f! .E,.E, .E,.E, | (A,2 !wedge!E) z |] %94
w: vieil- les,|les|vieux les|ont ef- fa- rou-|chés Ah!|

